X:294
T:Karl XII:s vals
R:Vals
S:Efter Anders Edvin Pettersson
Z:C-G Magnusson, 2009-02-25
O:Frändefors, Dalsland
N:Efter fadern
B:Svenska Låtar Dalsland nr 294
Q:140
M:3/4
L:1/8
K:D
DF AD FA | DG BD GB | Ac eA ce | Ad fe d2 |
DF AD FA | DG BD GB | Ac eA ce | d2 z2 z2 :|
|: fa g2 f2 | eg fe d2 | Ac eA ce | Ad fA df |
fa g2 f2 | eg fe d2 | Ac eA ce | d2 z2 z2 :|
|: gb bd gb | ba ag f2 | ef gA ce | dc de f2 |
gb bd gb | ba ag f2 | ef gA ce | d2 z2 z2 :|

